X: 0
T: The Wishing Well
C: Tommy Peoples
R: jig
M: 6/8
L: 1/8
K: Dmaj
F|"D"DFA d2e|fdB BAF|d2B BAF|B/c/dB BAF|
"D"DFA d2e|fdB BAF|BAF dBA|fac d2:|
|:"D"B|Adf ~a3|baf afd|~f2g afd|"G"Bdg "A"bge|
"D"Adf ~a3|baf afd|b2a afd|"A"Ace "D"d2e:|
|:e|"D"fdd "A"ceA|"D"d2g fdB|"A"c2B ceA|"D"~a3 bag|
"D"~f2d "A"ecA|"D"d2g fdA|"D"FAD "G"GBD|"A"Aec "D"d2e:|